svg/职场1.svg

<svg width="36" height="36" viewBox="0 0 36 36" fill="none" xmlns="http://www.w3.org/2000/svg"><rect x="-48.3" y="-9.8" width="132.6" height="87.6" rx="11.8" stroke="#DDDDDD" stroke-width="0.4"/><path d="M10.4238 15.5793C10.4238 16.9442 10.966 18.2532 11.9312 19.2184C12.8963 20.1835 14.2053 20.7257 15.5703 20.7257C16.9352 20.7257 18.2442 20.1835 19.2093 19.2184C20.1745 18.2532 20.7167 16.9442 20.7167 15.5793C20.7167 14.9035 20.5836 14.2342 20.3249 13.6098C20.0663 12.9854 19.6872 12.4181 19.2093 11.9402C18.7314 11.4623 18.1641 11.0832 17.5397 10.8246C16.9153 10.566 16.2461 10.4329 15.5703 10.4329C14.8944 10.4329 14.2252 10.566 13.6008 10.8246C12.9764 11.0832 12.4091 11.4623 11.9312 11.9402C11.4533 12.4181 11.0742 12.9854 10.8156 13.6098C10.5569 14.2342 10.4238 14.9035 10.4238 15.5793Z" fill="#54575B"/><path d="M17.9743 33.3665L19.2354 26.3626H26.8157C26.3484 23.508 23.8476 21.3184 20.8713 21.3184H18.8945L17.2244 24.1983L16.4195 25.5865C16.0342 26.251 15.0746 26.251 14.6893 25.5865L13.8844 24.1983L12.2143 21.3184H10.2716C6.94867 21.3184 4.23914 24.0279 4.23914 27.3339V33.3665H4.29836C4.43254 34.0875 4.95668 34.7138 5.70466 34.9513L8.73798 35.9056C9.8116 36.2464 10.9533 35.6329 11.2942 34.5594V34.5423C11.4203 34.145 11.4154 33.7384 11.3052 33.3665L17.9743 33.3665ZM8.3972 31.4983V27.9133H8.99362V31.6859L8.3972 31.4983Z" fill="#54575B"/><path d="M20.5478 27.4624L19.1846 35.0798H13.4076L13.2372 36H19.0142H19.781H30.2272L31.761 27.4624H20.5478Z" fill="#8D8F91"/><path d="M12 0.120117H24C30.5611 0.120117 35.8799 5.43886 35.8799 12V24C35.8799 30.5611 30.5611 35.8799 24 35.8799H12C5.43886 35.8799 0.120117 30.5611 0.120117 24V12C0.120117 5.43886 5.43886 0.120117 12 0.120117Z" stroke="#D1D5DA" stroke-width="0.24"/><defs><clipPath id="clip0_1970_14250"></clipPath></defs></svg>

<svg fill="none" viewBox="0 0 36 36"><rect width="132.6" height="87.6" x="-48.3" y="-9.8" stroke="#DDDDDD" stroke-width=".4" rx="11.8"/><path fill="#54575B" d="M10.424 15.58a5.146 5.146 0 1 0 10.293 0 5.146 5.146 0 0 0-10.293 0"/><path fill="#54575B" d="m17.974 33.367 1.261-7.004h7.58c-.467-2.855-2.967-5.045-5.944-5.045h-1.976l-1.67 2.88-.806 1.389a1 1 0 0 1-1.73 0l-.805-1.389-1.67-2.88h-1.942c-3.323 0-6.033 2.71-6.033 6.016v6.033h.06a2.06 2.06 0 0 0 1.406 1.584l3.033.955c1.074.34 2.215-.273 2.556-1.347v-.017c.126-.397.121-.804.011-1.175zm-9.577-1.869v-3.585h.597v3.773z"/><path fill="#8D8F91" d="m20.548 27.462-1.363 7.618h-5.777l-.17.92h16.989l1.534-8.538z"/><path stroke="#D1D5DA" stroke-width=".24" d="M12 .12h12C30.561.12 35.88 5.44 35.88 12v12c0 6.561-5.319 11.88-11.88 11.88H12C5.439 35.88.12 30.56.12 24V12C.12 5.439 5.44.12 12 .12Z"/></svg>
